icons/circle/48/openbazaar.svg

<?xml version="1.0" encoding="UTF-8" standalone="no"?>
<svg id="svg2" xmlns:cc="http://creativecommons.org/ns#" xmlns="http://www.w3.org/2000/svg" xmlns:rdf="http://www.w3.org/1999/02/22-rdf-syntax-ns#" version="1.1" xmlns:dc="http://purl.org/dc/elements/1.1/" viewBox="0 0 48 48">
 <metadata id="metadata45">
  <rdf:RDF>
   <cc:Work rdf:about="">
    <dc:format>image/svg+xml</dc:format>
    <dc:type rdf:resource="http://purl.org/dc/dcmitype/StillImage"/>
    <dc:title/>
   </cc:Work>
  </rdf:RDF>
 </metadata>
 <defs id="defs4">
  <linearGradient id="linearGradient3764" x1="1" x2="47" gradientTransform="matrix(0 -1 1 0 -.0000015 48)" gradientUnits="userSpaceOnUse">
   <stop id="stop7" offset="0" style="stop-color:#8eaccc"/>
   <stop id="stop9" offset="1" style="stop-color:#9cb6d2"/>
  </linearGradient>
 </defs>
 <g id="g11">
  <path id="path13" style="opacity:.05" d="m36.31 5c5.859 4.062 9.688 10.831 9.688 18.5 0 12.426-10.07 22.5-22.5 22.5-7.669 0-14.438-3.828-18.5-9.688 1.037 1.822 2.306 3.499 3.781 4.969 4.085 3.712 9.514 5.969 15.469 5.969 12.703 0 23-10.298 23-23 0-5.954-2.256-11.384-5.969-15.469-1.469-1.475-3.147-2.744-4.969-3.781zm4.969 3.781c3.854 4.113 6.219 9.637 6.219 15.719 0 12.703-10.297 23-23 23-6.081 0-11.606-2.364-15.719-6.219 4.16 4.144 9.883 6.719 16.219 6.719 12.703 0 23-10.298 23-23 0-6.335-2.575-12.06-6.719-16.219z"/>
  <path id="path15" style="opacity:.1" d="m41.28 8.781c3.712 4.085 5.969 9.514 5.969 15.469 0 12.703-10.297 23-23 23-5.954 0-11.384-2.256-15.469-5.969 4.113 3.854 9.637 6.219 15.719 6.219 12.703 0 23-10.298 23-23 0-6.081-2.364-11.606-6.219-15.719z"/>
  <path id="path17" style="opacity:.2" d="m31.25 2.375c8.615 3.154 14.75 11.417 14.75 21.13 0 12.426-10.07 22.5-22.5 22.5-9.708 0-17.971-6.135-21.12-14.75a23 23 0 0 0 44.875 -7 23 23 0 0 0 -16 -21.875z"/>
 </g>
 <g id="g19">
  <path id="path21" style="fill:url(#linearGradient3764)" d="m24 1c12.703 0 23 10.297 23 23s-10.297 23-23 23-23-10.297-23-23 10.297-23 23-23z"/>
 </g>
 <g id="g23">
  <g id="g25"></g>
 </g>
 <path id="rect4548" style="opacity:.1" d="m25 10c-2 4-8 8-13 10v2h2v14h22v-14h2v-2c-6-2-11-6-13-10z"/>
 <g id="g35">
  <path id="path37" style="opacity:.1" d="m40.03 7.531c3.712 4.084 5.969 9.514 5.969 15.469 0 12.703-10.297 23-23 23-5.954 0-11.384-2.256-15.469-5.969 4.178 4.291 10.01 6.969 16.469 6.969 12.703 0 23-10.298 23-23 0-6.462-2.677-12.291-6.969-16.469z"/>
 </g>
 <rect id="rect4509" width="22" height="14" y="21" style="fill:#0474be" x="13"/>
 <path id="rect4511" style="fill:#1062a9" d="m24 9c-2 4-8 8-13 10v2h26v-2c-6-2-11-6-13-10z"/>
 <path id="path4523" style="fill:#f9f9f9" d="m24 21c0.87933 4.8814 2.2947 9.6166 5 14l4-4zl-9 10 4 4c2.642-4.046 4.1897-8.7884 5-14z"/>
 <path id="rect4520" style="fill:#1f323e" d="m24 21 5 14h-10z"/>
</svg>

<svg xmlns="http://www.w3.org/2000/svg" viewBox="0 0 48 48">
  <defs>
    <linearGradient id="a" x1="1" x2="47" gradientTransform="rotate(-90 24 24)" gradientUnits="userSpaceOnUse">
      <stop offset="0" stop-color="#8eaccc"/>
      <stop offset="1" stop-color="#9cb6d2"/>
    </linearGradient>
  </defs>
  <path d="M36.31 5c5.859 4.062 9.688 10.831 9.688 18.5 0 12.426-10.07 22.5-22.5 22.5-7.669 0-14.438-3.828-18.5-9.688a23.24 23.24 0 0 0 3.781 4.969 22.923 22.923 0 0 0 15.469 5.969c12.703 0 23-10.298 23-23a22.92 22.92 0 0 0-5.969-15.469A23.216 23.216 0 0 0 36.31 5zm4.969 3.781A22.911 22.911 0 0 1 47.498 24.5c0 12.703-10.297 23-23 23a22.909 22.909 0 0 1-15.719-6.219C12.939 45.425 18.662 48 24.998 48c12.703 0 23-10.298 23-23 0-6.335-2.575-12.06-6.719-16.219z" opacity=".05"/>
  <path d="M41.28 8.781a22.923 22.923 0 0 1 5.969 15.469c0 12.703-10.297 23-23 23A22.92 22.92 0 0 1 8.78 41.281 22.911 22.911 0 0 0 24.499 47.5c12.703 0 23-10.298 23-23A22.909 22.909 0 0 0 41.28 8.781z" opacity=".1"/>
  <path d="M31.25 2.375C39.865 5.529 46 13.792 46 23.505c0 12.426-10.07 22.5-22.5 22.5-9.708 0-17.971-6.135-21.12-14.75a23 23 0 0 0 44.875-7 23 23 0 0 0-16-21.875z" opacity=".2"/>
  <path d="M24 1c12.703 0 23 10.297 23 23S36.703 47 24 47 1 36.703 1 24 11.297 1 24 1z" fill="url(#a)"/>
  <path d="M25 10c-2 4-8 8-13 10v2h2v14h22V22h2v-2c-6-2-11-6-13-10z" opacity=".1"/>
  <path d="M40.03 7.531A22.922 22.922 0 0 1 45.999 23c0 12.703-10.297 23-23 23A22.92 22.92 0 0 1 7.53 40.031C11.708 44.322 17.54 47 23.999 47c12.703 0 23-10.298 23-23 0-6.462-2.677-12.291-6.969-16.469z" opacity=".1"/>
  <path fill="#0474be" d="M13 21h22v14H13z"/>
  <path d="M24 9c-2 4-8 8-13 10v2h26v-2c-6-2-11-6-13-10z" fill="#1062a9"/>
  <path d="M24 21c.88 4.881 2.295 9.617 5 14l4-4zl-9 10 4 4c2.642-4.046 4.19-8.788 5-14z" fill="#f9f9f9"/>
  <path d="M24 21l5 14H19z" fill="#1f323e"/>
</svg>
